!!!!SEGMENT: pl-wumfc--n44066_moniuszko-stanislaw--improwizacya-adama-mickiewicza.krn
!!!cenid: 18xx:4073
!!!COM: Moniuszko, Stanisław
!!!COM-rismID: pe30008351
!!!CDT: 1819/05/05-1872/06/04
!!!CNT: Polish
!!!OTL: Improwizacya Adama Mickiewicza
!!!PDT:
!!!AGN:
!!!YEC: Copyright 2022 Narodowy Instytut Fryderyka Chopina (https://polishscores.org)
!!!YEM: License CC-BY-4.0 (https://creativecommons.org/licenses/by/4.0)
!!!SMS-siglum: PL-Wumfc
!!!SMS-shelfmark: N44066
!!!SMS-shelfwork: W
!!!SMS-variant:
!!!SMS-altvar:
!!!NIFC-rismSourceID: 1001166043
!!!NIFC-rismChildID: 1001166043
!!!NIFC-islandoraID: pl-wumfc:6110
!!!URL-pdf-islandora: https://repozytorium.nifc.pl/islandora/object/pl-wumfc%3A6110/datastream/PDF/view
!!!URL-scan: https://polish.musicsources.pl/pl/lokalizacje/galeria/druki-muzyczne/12499 @EN{Scan on Polish Music Sources Website} @PL{Skany w portalu Dziedzictwo Muzyki Polskiej w otwartym dostępie}
!!!IIIF:
!!!ONB-nifc:
!!!AIN: 2 piano 1 vox
!!!key: g
**kern	**dynam	**kern	**dynam	**kern	**text	**text
*part3	*	*part2	*	*part1	*	*
*staff3	*	*staff2	*	*staff1	*	*
*I"Piano	*	*I"Fortepian.	*	*I"Śpiew.	*	*
*	*	*I'pf	*	*I'Ś	*	*
*Ipiano	*	*Ipiano	*	*Ivox	*	*
*ICpiano	*	*ICpiano	*	*ICvox	*	*
*clefF4	*	*clefG2	*	*clefG2	*	*
*k[b-e-]	*	*k[b-e-]	*	*k[b-e-]	*	*
*g:	*	*g:	*	*g:	*	*
*M2/4	*	*M2/4	*	*M2/4	*	*
=1	=1	=1	=1	=1	=1	=1
*^	*	*	*	*	*	*
!	!	!	!LO:TX:a:t=molto simplice	!	!LO:TX:a:t=Andantino.	!	!
!	!	!	!LO:TUP:a	!	!	!	!
4d/	16G\	.	24r	p	2r	.	.
.	.	.	24dd'\LL 24bb- 24ddd	.	.	.	.
.	16r	.	.	.	.	.	.
.	.	.	24dd'\JJ 24bb- 24ddd	.	.	.	.
!	!	!	!LO:TUP:a	!	!	!	!
.	16G\	.	24r	.	.	.	.
.	.	.	24dd'\LL 24ccc 24ddd	.	.	.	.
.	16r	.	.	.	.	.	.
.	.	.	24dd'\JJ 24ccc 24ddd	.	.	.	.
!	!	!	!LO:TUP:a	!	!	!	!
8d/L	16G\	.	24r	.	.	.	.
.	.	.	24dd'\LL 24bb- 24ddd	.	.	.	.
.	16r	.	.	.	.	.	.
.	.	.	24dd'\JJ 24bb- 24ddd	.	.	.	.
!	!	!	!LO:TUP:a	!	!	!	!
8d/J	16G\	.	24r	.	.	.	.
.	.	.	24dd'\LL 24gg 24ddd	.	.	.	.
.	16r	.	.	.	.	.	.
.	.	.	24dd'\JJ 24gg 24ddd	.	.	.	.
=2	=2	=2	=2	=2	=2	=2	=2
*	*	*	*Xtuplet	*	*	*	*
8d/L	16F#X\ 16c	.	24r	.	2r	.	.
.	.	.	24dd'\LL 24aa 24ddd	.	.	.	.
.	16r	.	.	.	.	.	.
.	.	.	24dd'\JJ 24aa 24ddd	.	.	.	.
8c/	16F#\ 16A	.	24r	.	.	.	.
.	.	.	24ee-'\LL 24aa 24eee-	.	.	.	.
.	16r	.	.	.	.	.	.
.	.	.	24ee-'\JJ 24aa 24eee-	.	.	.	.
8d/	16F#\ 16A	.	24r	.	.	.	.
.	.	.	24dd'\LL 24aa 24ddd	.	.	.	.
.	16r	.	.	.	.	.	.
.	.	.	24dd'\JJ 24aa 24ddd	.	.	.	.
8e-/J	16F#\ 16A	.	24r	.	.	.	.
.	.	.	24cc'\LL 24aa 24ccc	.	.	.	.
.	16r	.	.	.	.	.	.
.	.	.	24cc'\JJ 24aa 24ccc	.	.	.	.
=3	=3	=3	=3	=3	=3	=3	=3
8d/L	16G\	.	24r	.	2r	.	.
.	.	.	24b-'\LL 24aa 24bb-	.	.	.	.
.	16r	.	.	.	.	.	.
.	.	.	24b-'\JJ 24aa 24bb-	.	.	.	.
16.e-/L	(4E-\	.	24r	.	.	.	.
.	.	.	24b-'\LL 24gg 24bb-	.	.	.	.
.	.	.	24b-'\JJ 24gg 24bb-	.	.	.	.
32d/JJk	.	.	.	.	.	.	.
(4c/	.	.	24r	.	.	.	.
.	.	.	24a'\LL 24gg 24aa	.	.	.	.
.	.	.	24a'\JJ 24gg 24aa	.	.	.	.
.	8D\)	.	24r	.	.	.	.
.	.	.	24a-X'\LL 24ff 24aa-X	.	.	.	.
.	.	.	24a-'\JJ 24ff 24aa-	.	.	.	.
!LO:LB:g=original	!LO:LB:g=original	!	!LO:LB:g=original	!LO:LB:g=original	!	!	!
=4!|:	=4!|:	=4!|:	=4!|:	=4!|:	=4!|:	=4!|:	=4!|:
8Bn/)	8G\	.	24r	.	2r	.	.
.	.	.	24g'\LL 24ff 24gg	.	.	.	.
.	.	.	24g'\JJ 24ff 24gg	.	.	.	.
4c/	(16.C\LL	<	24r	.	.	.	.
.	.	.	24g'\LL 24ee- 24gg	.	.	.	.
.	.	.	24g'\JJ 24ee- 24gg	.	.	.	.
.	32D\JJk)	.	.	.	.	.	.
.	(8E-\L 8G	[ >	24r	.	.	.	.
.	.	.	24g'\LL 24cc 24gg	.	.	.	.
.	.	.	24g'\JJ 24cc 24gg	.	.	.	.
8c/	8D\J) 8A	]	24r	.	.	.	.
.	.	.	24f#X'\LL 24dd 24ff#X	.	.	.	.
.	.	.	24f#'\JJ 24dd 24ff#	.	.	.	.
*v	*v	*	*	*	*	*	*
=5	=5	=5	=5	=5	=5	=5
16G\ 16B-	.	24r	.	8g/	1. Gdy-	2. Gdy-
.	.	24g'\LL 24dd 24gg	.	.	.	.
16r	.	.	.	.	.	.
.	.	24g'\JJ 24dd 24gg	.	.	.	.
16G\ 16d	.	24r	.	16.b-/	-bym	-bym
.	.	24b-'\LL 24dd 24bb-	.	.	.	.
16r	.	.	.	.	.	.
.	.	24b-'\JJ 24dd 24bb-	.	.	.	.
.	.	.	.	32a/	się	się
16G\ 16B-	.	24r	.	8.b-/	zmie-	zmie-
.	.	24g'\LL 24dd 24gg	.	.	.	.
16r	.	.	.	.	.	.
.	.	24g'\JJ 24dd 24gg	.	.	.	.
16G\ 16d	.	24r	.	.	.	.
.	.	24b-'\LL 24gg 24bb-	.	.	.	.
16r	.	.	.	16g/	-nił	-nił
.	.	24b-'\JJ 24gg 24bb-	.	.	.	.
=6	=6	=6	=6	=6	=6	=6
16F#X\ 16c 16d	.	24r	.	8a/	w wstę-	w wie-
.	.	24a'\LL 24dd 24aa	.	.	.	.
16r	.	.	.	.	.	.
.	.	24a'\JJ 24dd 24aa	.	.	.	.
16F#\ 16c 16d	.	24r	.	16.dd\	-gę	-trzyk
.	.	24dd'\LL 24aa 24ddd	.	.	.	.
16r	.	.	.	.	.	.
.	.	24dd'\JJ 24aa 24ddd	.	.	.	.
.	.	.	.	32cc#X\	zło-	skrzy-
16F#\ 16c 16d	.	24r	.	8.dd\	-ci-	-dla-
.	.	24a'\LL 24dd 24aa	.	.	.	.
16r	.	.	.	.	.	.
.	.	24a'\JJ 24dd 24aa	.	.	.	.
16F#\ 16c 16d	.	24r	.	.	.	.
.	.	24dd'\LL 24aa 24ddd	.	.	.	.
16r	.	.	.	16dd\	-stą,	-ty,
.	.	24dd'\JJ 24aa 24ddd	.	.	.	.
!LO:LB:g=original	!	!LO:LB:g=original	!	!LO:LB:g=original	!	!
=7	=7	=7	=7	=7	=7	=7
16G\ 16B- 16d	.	24r	<	8dd\	co	co
.	.	24b-'\LL 24gg 24bb-	.	.	.	.
16r	.	.	.	.	.	.
.	.	24b-'\JJ 24gg 24bb-	.	.	.	.
16G\	.	24r	.	16.ee-\	na	dy-
.	.	24b-'\LL 24gg 24bb-	.	.	.	.
16r	.	.	.	.	.	.
.	.	24b-'\JJ 24gg 24bb-	.	.	.	.
.	.	.	.	32dd\	twem	-sze
16E-\ 16G 16c	.	24r	.	(16.cc\LL	czo-	w po-
.	.	24cc'\LL 24gg 24ccc	.	.	.	.
16r	.	.	.	.	.	.
.	.	24cc'\JJ 24gg 24ccc	.	.	.	.
.	.	.	.	32b-\JJk)	.	.
16E-\ 16G 16A	.	24r	.	16a/	-le	-go-
.	.	24cc#X'\LL 24gg 24ccc#X	.	.	.	.
16r	.	.	.	16g/	po-	-dnem
.	.	24cc#'\JJ 24gg 24ccc#	[[	.	.	.
=8	=8	=8	=8	=8	=8	=8
*^	*	*	*	*	*	*
(4G/ 4B-	16D\	.	24r	>	4b-\	-ły-	nie-
.	.	.	24dd'\LL 24gg 24bb- 24ddd	.	.	.	.
.	16r	.	.	.	.	.	.
.	.	.	24dd'\JJ 24gg 24bb- 24ddd	.	.	.	.
.	(8C#X\L	.	24r	.	.	.	.
.	.	.	24een'\LL 24gg 24bb- 24eeen	.	.	.	.
.	.	.	24ee'\JJ 24gg 24bb- 24eee	.	.	.	.
16A/)	16D\Jk)	.	24r	]	8a/	-ska,	-bie,
.	.	.	24dd'\LL 24ff#X 24aa 24ddd	.	.	.	.
16ryy	16r	.	.	.	.	.	.
.	.	.	24dd'\JJ 24ff# 24aa 24ddd	.	.	.	.
8ryy	16D\	.	24r	.	8r	.	.
.	.	.	24d'/LL 24f#X 24a 24dd	.	.	.	.
.	16r	.	.	.	.	.	.
.	.	.	24d'/JJ 24f# 24a 24dd	.	.	.	.
*v	*v	*	*	*	*	*	*
=9	=9	=9	=9	=9	=9	=9
16BB-\ 16F 16B-	.	24r	<	8b-/	gdy-	w dro-
.	.	24d'/LL 24b- 24dd	.	.	.	.
16r	.	.	.	.	.	.
.	.	24d'/JJ 24b- 24dd	.	.	.	.
16BB-\ 16F 16B-	.	24r	.	16a/	-bym	-dze
.	.	24dd'\LL 24bb- 24ddd	.	.	.	.
16r	.	.	.	16b-/	się	bym
.	.	24dd'\JJ 24bb- 24ddd	.	.	.	.
16BB-\ 16F 16c	.	24r	.	8.cc\	zmie-	mi-
.	.	24ee-'\LL 24aa 24eee-	.	.	.	.
16r	.	.	.	.	.	.
.	.	24ee-'\JJ 24aa 24eee-	.	.	.	.
16BB-\ 16F 16c	.	24r	.	.	.	.
.	.	24e-'/LL 24a 24ee-	.	.	.	.
16r	.	.	.	16cc\	-nił	-jał
.	.	24e-'/JJ 24a 24ee-	.	.	.	.
!LO:LB:g=original	!	!LO:LB:g=original	!	!LO:LB:g=original	!	!
=10	=10	=10	=10	=10	=10	=10
16BB-\ 16F 16d	.	24r	.	8dd\	w tę	naj-
.	.	24f'\LL 24a-X 24ff	.	.	.	.
16r	.	.	.	.	.	.
.	.	24f'\JJ 24a- 24ff	.	.	.	.
16B-\ 16d	.	24r	.	16.ee-\	sza-	-śwież-
.	.	24ff'\LL 24aa-X 24fff	.	.	.	.
16r	.	.	.	.	.	.
.	.	24ff'\JJ 24aa- 24fff	.	.	.	.
.	.	.	.	32ff\	-tę	-sze
16E-\ 16B- 16e-	.	24r	.	8.ff\	mgli-	kwia-
.	.	24gg'\LL 24eee- 24ggg	.	.	.	.
16r	.	.	.	.	.	.
.	.	24gg'\JJ 24eee- 24ggg	.	.	.	.
16E-\ 16B- 16e-	.	24r	.	.	.	.
.	.	24g'\LL 24ee- 24gg	.	.	.	.
16r	.	.	.	16ee-\	-stą	-ty,
.	.	24g'\JJ 24ee- 24gg	.	.	.	.
=11	=11	=11	=11	=11	=11	=11
16C\ 16E- 16A 16c	.	24r	.	(16.dd\LL	co	a
.	.	24a'\LL 24ee- 24aa	.	.	.	.
16r	.	.	.	.	.	.
.	.	24a'\JJ 24ee- 24aa	.	.	.	.
.	.	.	.	32cc\JJk)	.	.
16C\ 16G 16e-	.	24r	.	16b-/	pier-	pieś-
*	*	*8va	*	*	*	*
.	.	24aa'\LL 24eee- 24aaa	.	.	.	.
16r	.	.	.	16a/	-si	-cił
.	.	24aa'\JJ 24eee- 24aaa	.	.	.	.
16D\ 16G 16B- 16d	.	24r	f	(8g/	two-	ró-
.	.	24bb-'\LL 24ddd 24bbb-	.	.	.	.
16r	.	.	.	.	.	.
.	.	24bb-'\JJ 24ddd 24bbb-	.	.	.	.
.	.	.	.	32qqa/LLL)	.	.
.	.	.	.	32qqg/JJJ	.	.
16D\ 16G 16B-	.	24r	.	16f#X/	-je	-że
.	.	24gg'\LL 24ddd 24ggg	.	.	.	.
16r	.	.	.	16g/	przy-	i
.	.	24gg'\JJ 24ddd 24ggg	[[	.	.	.
*	*	*X8va	*	*	*	*
=12	=12	=12	=12	=12	=12	=12
16D\ 16G 16A	.	24r	>	4dd\	-ci-	cie-
.	.	24dd'\LL 24aa 24ddd	.	.	.	.
16r	.	.	.	.	.	.
.	.	24dd'\JJ 24aa 24ddd	.	.	.	.
16D\ 16F#X 16A 16d	.	24r	.	.	.	.
.	.	24a'\LL 24dd 24aa	.	.	.	.
16r	.	.	.	.	.	.
.	.	24a'\JJ 24dd 24aa	.	.	.	.
16G\ 16B- 16d	.	24r	.	8b-\	-ska,	-bie.
.	.	24b-'\LL 24dd 24bb-	.	.	.	.
16r	.	.	.	.	.	.
.	.	24b-'\JJ 24dd 24bb-	]	.	.	.
16G\ 16B- 16d	.	24r	.	8r	.	.
.	.	24g'\LL 24dd 24gg	.	.	.	.
16r	.	.	.	.	.	.
.	.	24g'\JJ 24dd 24gg	.	.	.	.
!LO:LB:g=original	!	!LO:LB:g=original	!	!LO:LB:g=original	!	!
=13	=13	=13	=13	=13	=13	=13
*^	*	*	*	*	*	*
(4c#X/	16En\ 16G 16B-	.	24r	p	8b-\	drże-	Mo-
.	.	.	24b-'\LL 24gg 24bb-	.	.	.	.
.	16r	.	.	.	.	.	.
.	.	.	24b-'\JJ 24gg 24bb-	.	.	.	.
.	16E\ 16G 16B-	.	24r	.	16.g/	-nia	-że
.	.	.	24g'\LL 24b- 24gg	.	.	.	.
.	16r	.	.	.	.	.	.
.	.	.	24g'\JJ 24b- 24gg	.	.	.	.
.	.	.	.	.	32a/	bym	na
4d/)	16G\ 16B-	.	24r	.	8.b-\	ser-	ko-
.	.	.	24b-'\LL 24gg 24bb-	.	.	.	.
.	16r	.	.	.	.	.	.
.	.	.	24b-'\JJ 24gg 24bb-	.	.	.	.
.	16G\ 16B-	.	24r	.	.	.	.
.	.	.	24g'\LL 24b- 24gg	.	.	.	.
.	16r	.	.	.	16b-\	-ca	-niec
.	.	.	24g'\JJ 24b- 24gg	.	.	.	.
=14	=14	=14	=14	=14	=14	=14	=14
(4c#X/	16En\ 16G 16B-	.	24r	.	8b-\	two-	Bóg
.	.	.	24b-'\LL 24gg 24bb-	.	.	.	.
.	16r	.	.	.	.	.	.
.	.	.	24b-'\JJ 24gg 24bb-	.	.	.	.
.	16E\ 16G 16B-	.	24r	.	16.g/	-je-	mi-
.	.	.	24g'\LL 24b- 24gg	.	.	.	.
.	16r	.	.	.	.	.	.
.	.	.	24g'\JJ 24b- 24gg	.	.	.	.
.	.	.	.	.	32a/	-go	-ło-
.	.	.	.	.	8qcc/	.	.
4d/)	16G\ 16B-	.	24r	.	8.b-\	ba-	-ści-
.	.	.	24b-'\LL 24gg 24bb-	.	.	.	.
.	16r	.	.	.	.	.	.
.	.	.	24b-'\JJ 24gg 24bb-	.	.	.	.
.	16G\ 16B-	.	24r	.	.	.	.
.	.	.	24g'\LL 24b- 24gg	.	.	.	.
.	16r	.	.	.	16b-\	-dał,	-wy,
.	.	.	24g'\JJ 24b- 24gg	.	.	.	.
=15	=15	=15	=15	=15	=15	=15	=15
8G/L	8E-X\L	<	24r	.	8b-\	czy	pra-
.	.	.	24b-'\LL 24gg 24bb-	.	.	.	.
.	.	.	24b-'\JJ 24gg 24bb-	.	.	.	.
16.A/L	8En\J	.	24r	.	16.a/	nie	-cę
.	.	.	24cc'\LL 24gg 24ccc	.	.	.	.
.	.	.	24cc#X'\JJ 24gg 24ccc#X	.	.	.	.
[32B-/JJk	.	.	.	.	32g/	od-	by
8B-/L]	8F\L	.	24r	.	8f/	-po-	mo-
.	.	.	24dd'\LL 24ff 24ddd	.	.	.	.
.	.	.	24dd'\JJ 24ff 24ddd	.	.	.	.
16.B-/L	8F\J	.	24r	.	16b-\	-wie	-ją
.	.	.	24dd'\LL 24bb- 24ddd	.	.	.	.
.	.	.	.	.	16cc\	mo-	o-
.	.	[[	24ee-'\JJ 24bb- 24eee-	.	.	.	.
32cn/JJk	.	.	.	.	.	.	.
!LO:LB:g=original	!LO:LB:g=original	!	!	!LO:LB:g=original	!	!	!
=16	=16	=16	=16	=16	=16	=16	=16
8d/L	8F\L	>	24r	.	(8.dd\L	-je-	-ce-
.	.	.	24ff'\LL 24bb- 24fff	.	.	.	.
.	.	.	24ff'\JJ 24bb- 24fff	.	.	.	.
(8f/J	8F\J 8A	.	24r	.	.	.	.
.	.	.	24ee-'\LL 24ccc 24eee-	.	.	.	.
.	.	.	.	.	16cc\Jk)	.	.
.	.	.	24ee-'\JJ 24ccc 24eee-	.	.	.	.
8f/)	16B-\	]	24r	.	8b-\	-mu,	-nił,
.	.	.	24dd'\LL 24bb- 24ddd	.	.	.	.
.	16r	.	.	.	.	.	.
.	.	.	24dd'\JJ 24bb- 24ddd	.	.	.	.
8ryy	16BB-/	.	24r	.	8r	.	.
.	.	.	24b-'\LL 24dd 24bb-	.	.	.	.
.	16r	.	.	.	.	.	.
.	.	.	24b-'\JJ 24dd 24bb-	.	.	.	.
=17	=17	=17	=17	=17	=17	=17	=17
2G/ 2B-	(8En\L	.	24r	.	8b-\	z two-	mo-
.	.	.	24g'\LL 24b- 24cc#X 24gg	.	.	.	.
.	.	.	24g'\JJ 24b- 24cc# 24gg	.	.	.	.
.	8E-X\	.	24r	.	16.g/	-jem	-że
.	.	.	24g'\LL 24b- 24cc# 24gg	<	.	.	.
.	.	.	24g'\JJ 24b- 24cc# 24gg	.	.	.	.
.	.	.	.	.	32a/	się	na-
.	8D\	.	24r	.	8.b-\	ło-	-ko-
.	.	.	24g'\LL 24b- 24dd 24gg	.	.	.	.
.	.	.	24g'\JJ 24b- 24dd 24gg	.	.	.	.
.	8D-X\J	.	24r	.	.	.	.
.	.	.	24g'\LL 24b- 24ee- 24gg	.	.	.	.
.	.	.	.	.	16b-\	-nem	-niec
.	.	.	24g'\JJ 24b- 24ee- 24gg	.	.	.	.
=18	=18	=18	=18	=18	=18	=18	=18
4.G/	8C\L	.	24r	.	8b-\	wzno-	był-
.	.	.	24g'\LL 24b- 24een 24gg	.	.	.	.
.	.	.	24g'\JJ 24b- 24ee 24gg	.	.	.	.
.	8BBn\	.	24r	.	16.g/	-sił,	-bym
.	.	.	24g'\LL 24bn 24ee 24gg	.	.	.	.
.	.	.	24g'\JJ 24b 24ee 24gg	.	.	.	.
.	.	.	.	.	32a/	lub	szczę-
.	8BB-X\	.	24r	.	8b-\	spa-	-śli-
.	.	.	24g'\LL 24ccn 24ee 24gg	.	.	.	.
.	.	.	24g'\JJ 24cc 24ee 24gg	.	.	.	.
8A/	8AA\J	.	24r	.	16cc\	-dał	-wy
.	.	.	24f'\LL 24cc 24ff	.	.	.	.
.	.	.	.	.	16dd\	po-	i
.	.	.	24f'\JJ 24cc 24ff	[[	.	.	.
*v	*v	*	*	*	*	*	*
=19	=19	=19	=19	=19	=19	=19
8GG/L 8G	.	24r	>	(8ee-\	-słu-	w ser-
.	.	24g'\LL 24b- 24ee-	.	.	.	.
.	.	24g'\JJ 24b- 24ee-	.	.	.	.
8FF#X/ 8F#X	.	24r	.	16.dd\)	.	.
.	.	24d'/LL 24a 24dd	.	.	.	.
.	.	24d'/JJ 24a 24dd	.	.	.	.
.	.	.	.	32cc\	-szny	-ce
8GG/) 8G	.	24r	.	8b-\	tchnie-	twe
.	.	24d'/LL 24g 24b-	.	.	.	.
.	.	24d'/JJ 24g 24b-	.	.	.	.
8C/J	.	24r	.	16.a/	-niu	się
.	.	24e-'/LL 24g 24cc	.	.	.	.
.	.	24g'/JJ 24cc 24ee-	]]	.	.	.
.	.	.	.	32g/	two-	za-
!LO:LB:g=original	!	!LO:LB:g=original	!	!LO:LB:g=original	!	!
=20	=20	=20	=20	=20	=20	=20
8D\L 8G 8Bn	.	24r	.	2dd\	-je-	-mie-
.	.	24d'/LL 24g 24bn 24dd	p	.	.	.
.	.	24d'/JJ 24g 24b 24dd	.	.	.	.
8D\ 8G 8B-X	.	24r	.	.	.	.
.	.	24d'/LL 24g 24b-X 24dd	.	.	.	.
.	.	24d'/JJ 24g 24b- 24dd	.	.	.	.
8D\ 8G 8A	.	24r	.	.	.	.
.	.	24d'/LL 24g 24a 24dd	.	.	.	.
.	.	24d'/JJ 24g 24a 24dd	.	.	.	.
8D\J 8F#X 8A	.	24r	.	.	.	.
.	.	24d'/LL 24f#X 24a 24dd	.	.	.	.
.	.	24d'/JJ 24f# 24a 24dd	pp	.	.	.
=21	=21	=21	=21	=21	=21	=21
*^	*	*	*	*	*	*
(4g/	16G\ 16d	.	24r	.	8g/	-mu.	-nił.
.	.	.	24dd\LL 24gg 24bbn 24ddd	.	.	.	.
.	16r	.	.	.	.	.	.
.	.	.	24dd\JJ 24gg 24bb 24ddd	.	.	.	.
.	16.G\LL 16.d	.	24r	.	8r	.	.
.	.	.	24dd\LL 24gg 24ccc 24ddd	.	.	.	.
.	.	.	24dd\JJ 24gg 24ccc 24ddd	.	.	.	.
.	32G\JJk 32d	.	.	.	.	.	.
8d/L)	16G\	.	24r	.	4r	.	.
.	.	.	24dd\LL 24gg 24bb 24ddd	.	.	.	.
.	16r	.	.	.	.	.	.
.	.	.	24dd\JJ 24gg 24bb 24ddd	.	.	.	.
8d/J	16G\ 16Bn	.	24r	.	.	.	.
.	.	.	24dd\LL 24gg 24ddd	.	.	.	.
.	16r	.	.	.	.	.	.
.	.	.	24dd\JJ 24gg 24ddd	.	.	.	.
=22	=22	=22	=22	=22	=22	=22	=22
8d^/L	16F#X\ 16A	.	24r	.	2r	.	.
.	.	.	24dd\LL 24aa 24ddd	.	.	.	.
.	16r	.	.	.	.	.	.
.	.	.	24dd\JJ 24aa 24ddd	.	.	.	.
16.c/L	16.F#\LL 16.A	.	24r	.	.	.	.
.	.	.	24een\LL 24aa 24eeen	.	.	.	.
.	.	.	24ee\JJ 24aa 24eee	.	.	.	.
32A/JK	32F#\JJk	.	.	.	.	.	.
8d/	16F#\ 16A	.	24r	.	.	.	.
.	.	.	24dd\LL 24aa 24ddd	.	.	.	.
.	16r	.	.	.	.	.	.
.	.	.	24dd\JJ 24aa 24ddd	.	.	.	.
[8d/J	16F#\ 16A	.	24r	.	.	.	.
.	.	.	24cc\LL 24aa 24ccc	.	.	.	.
.	16r	.	.	.	.	.	.
.	.	.	24cc\JJ 24aa 24ccc	.	.	.	.
!LO:LB:g=original	!LO:LB:g=original	!	!LO:LB:g=original	!	!LO:LB:g=original	!	!
=23	=23	=23	=23	=23	=23	=23	=23
8d/L]	16G\	.	24r	.	2r	.	.
.	.	.	24bn\LL 24aa 24bbn	.	.	.	.
.	16r	.	.	.	.	.	.
.	.	.	24b\JJ 24aa 24bb	.	.	.	.
16.e-^/L	(8En\L	.	24r	.	.	.	.
.	.	.	24b-X\LL 24gg 24bb-X	.	.	.	.
.	.	.	24b-\JJ 24gg 24bb-	.	.	.	.
(32d/JJk	.	.	.	.	.	.	.
8c#X/L	8A\J)	.	24r	.	.	.	.
.	.	.	24a\LL 24gg 24aa	.	.	.	.
.	.	.	24a\JJ 24gg 24aa	.	.	.	.
8cn/J	(8D\	.	24r	.	.	.	.
.	.	.	24a-X\LL 24ff 24aa-X	.	.	.	.
.	.	.	24a-\JJ 24ff 24aa-	.	.	.	.
=24:|!	=24:|!	=24:|!	=24:|!	=24:|!	=24:|!	=24:|!	=24:|!
8Bn/)	8G\)	.	24r	.	2r	.	.
!	!	!	!LO:TX:b:t=rall.	!	!	!	!
.	.	.	24g\LL 24ff 24gg	.	.	.	.
.	.	.	24g\JJ 24ff 24gg	.	.	.	.
4c/	(16.C\LL	>	24r	.	.	.	.
.	.	.	24g\LL 24ee- 24gg	.	.	.	.
.	.	.	24g\JJ 24dd 24gg	.	.	.	.
.	32D\JJk	.	.	.	.	.	.
.	8E-\)	]	16g\ 16cc 16gg	.	.	.	.
.	.	.	16r	.	.	.	.
((8DD/ 8D	8ryy	.	[8A/ [8c [8f#X	.	.	.	.
*v	*v	*	*	*	*	*	*
=25	=25	=25	=25	=25	=25	=25
8GGG/L)) 8GG	.	24A/LL] 24c] 24f#]	.	2r	.	.
*	*	*ped	*	*	*	*
.	.	24B-'/ 24g	.	.	.	.
.	.	[24B-/JJ [24g	.	.	.	.
((8GG/ 8D	.	24B-/LL] 24g]	.	.	.	.
.	.	24B-'/ 24d 24b-	.	.	.	.
.	.	[24B-/JJ [24d [24b-	.	.	.	.
8GGG/)) 8GG	.	24B-/LL] 24d] 24b-]	.	.	.	.
*	*	*ped	*	*	*	*
.	.	24B-'/ 24d 24g	.	.	.	.
.	.	24B-/JJ [24d [24g	.	.	.	.
((8GG/J 8D 8B-	.	24d/LL] 24g]	.	.	.	.
.	.	24d'/ 24g 24dd	.	.	.	.
.	.	[24d/JJ [24g [24dd	.	.	.	.
=26	=26	=26	=26	=26	=26	=26
8GGG/)) 8GG	.	8d/] 8g] 8dd]	.	2r	.	.
8r	.	8r	.	.	.	.
*ped	*	*	*	*	*	*
8G:\ 8B-: 8d:	.	8g:\ 8b-: 8dd: 8gg:	.	.	.	.
8r	.	8r	.	.	.	.
=27	=27	=27	=27	=27	=27	=27
*^	*	*	*	*	*	*
2D;/	2GG\	.	2B-;/ 2g	.	2r;	.	.
*v	*v	*	*	*	*	*	*
==	==	==	==	==	==	==
*-	*-	*-	*-	*-	*-	*-
!!!RDF**kern: > = above
!!!RDF**kern: < = below
!!!system-decoration: s1[(s2,s3)]
!!!ENC: Andrzej Gręziak
!!!END: 2022-08-18
!!!ENC: Julita Ruszuk
!!!END: 2022-09-22
